icons/cloudy-fog.svg

<svg width="24" height="24" viewBox="0 0 24 24" fill="none" xmlns="http://www.w3.org/2000/svg">
<path fill-rule="evenodd" clip-rule="evenodd" d="M13.1449 4.09161C12.4733 3.97131 11.7808 3.96947 11.1084 4.08622C10.4359 4.20298 9.80103 4.43526 9.23946 4.76583C8.10447 5.43396 7.35179 6.45136 7.09763 7.56696C6.99395 8.02201 6.58931 8.34483 6.12261 8.34483C5.01072 8.34483 3.95543 8.76164 3.18622 9.48655C2.41902 10.2096 2 11.1771 2 12.1724C2 13.1678 2.41902 14.1353 3.18622 14.8583C3.95543 15.5832 5.01072 16 6.12261 16H19.189C19.9393 16 20.6559 15.7062 21.1819 15.1879C21.7075 14.6701 22 13.971 22 13.2452C22 12.5194 21.7075 11.8203 21.1819 11.3025C20.6559 10.7842 19.9393 10.4904 19.189 10.4904H18.1001C17.7959 10.4904 17.5082 10.3519 17.3184 10.1141C17.1287 9.87623 17.0575 9.56494 17.1251 9.26829C17.2512 8.7149 17.2531 8.14612 17.1308 7.59221C17.0084 7.03795 16.7626 6.50351 16.401 6.02055C16.0392 5.5372 15.5677 5.11428 15.0087 4.78093C14.4496 4.4475 13.8164 4.21191 13.1449 4.09161ZM10.7663 2.1157C11.6686 1.95904 12.5962 1.96149 13.4975 2.12295C14.3989 2.28441 15.2606 2.60253 16.0331 3.06317C16.8057 3.52387 17.4764 4.11979 18.002 4.8219C18.528 5.5244 18.8977 6.31882 19.0837 7.16095C19.1806 7.59971 19.2262 8.04534 19.2206 8.49053C20.4805 8.49871 21.6898 8.99521 22.5856 9.87783C23.4895 10.7683 24 11.9793 24 13.2452C24 14.5111 23.4895 15.7221 22.5856 16.6126C21.6823 17.5026 20.4602 18 19.189 18H6.12261C4.5173 18 2.96668 17.3996 1.81454 16.3138C0.660383 15.2261 0 13.7378 0 12.1724C0 10.6071 0.660383 9.11873 1.81454 8.03104C2.78417 7.11725 4.03604 6.54723 5.36521 6.38957C5.87515 5.0047 6.8898 3.8282 8.22487 3.04229C9.0002 2.58588 9.86392 2.27237 10.7663 2.1157ZM4 21C4 20.4477 4.44772 20 5 20H19C19.5523 20 20 20.4477 20 21C20 21.5523 19.5523 22 19 22H5C4.44772 22 4 21.5523 4 21Z" fill="black"/>
</svg>

<svg
  width="24"
  height="24"
  viewBox="0 0 24 24"
  xmlns="http://www.w3.org/2000/svg"
>
  <path
    fill-rule="evenodd"
    clip-rule="evenodd"
    d="M13.145 4.092a5.876 5.876 0 0 0-2.037-.006 5.563 5.563 0 0 0-1.869.68c-1.135.668-1.887 1.685-2.141 2.801a1 1 0 0 1-.975.778 4.286 4.286 0 0 0-2.937 1.142C2.42 10.21 2 11.177 2 12.172c0 .996.419 1.963 1.186 2.686A4.286 4.286 0 0 0 6.123 16h13.066a2.84 2.84 0 0 0 1.993-.812A2.727 2.727 0 0 0 22 13.245c0-.726-.293-1.425-.818-1.942a2.84 2.84 0 0 0-1.993-.813H18.1a1 1 0 0 1-.975-1.222 3.816 3.816 0 0 0 .006-1.676 4.098 4.098 0 0 0-.73-1.571 4.808 4.808 0 0 0-1.392-1.24 5.554 5.554 0 0 0-1.864-.69zm-2.379-1.976a7.876 7.876 0 0 1 2.732.007c.9.161 1.763.48 2.535.94a6.806 6.806 0 0 1 1.969 1.759 6.097 6.097 0 0 1 1.082 2.339c.097.439.142.884.137 1.33a4.84 4.84 0 0 1 3.365 1.387A4.727 4.727 0 0 1 24 13.245c0 1.266-.51 2.477-1.414 3.368A4.84 4.84 0 0 1 19.189 18H6.123c-1.606 0-3.156-.6-4.308-1.686C.66 15.226 0 13.738 0 12.172c0-1.565.66-3.053 1.815-4.141a6.25 6.25 0 0 1 3.55-1.641c.51-1.385 1.525-2.562 2.86-3.348a7.563 7.563 0 0 1 2.541-.926zM4 21a1 1 0 0 1 1-1h14a1 1 0 1 1 0 2H5a1 1 0 0 1-1-1z"
  />
</svg>
